static/assets/images/networks/mode.svg

<svg width="256" height="256" viewBox="0 0 256 256" fill="none" xmlns="http://www.w3.org/2000/svg">
<path d="M128 256C198.692 256 256 198.692 256 128C256 57.3075 198.692 0 128 0C57.3075 0 0 57.3075 0 128C0 198.692 57.3075 256 128 256Z" fill="#DFFE00"/>
<path d="M132.263 140.913L160.591 59.5H204.5V201.5H174.755V130.973L186.559 90.2667L178.06 87.4267L139.345 201.5H116.683L78.4396 87.4267L69.9412 90.2667L81.7446 130.5V201.5H52V59.5H96.8529L122.82 140.913V164.58H132.263V140.913Z" fill="black"/>
</svg>

<svg xmlns="http://www.w3.org/2000/svg" fill="none" viewBox="0 0 256 256"><path fill="#DFFE00" d="M128 256c70.692 0 128-57.308 128-128S198.692 0 128 0 0 57.308 0 128s57.308 128 128 128"/><path fill="#000" d="M132.263 140.913 160.591 59.5H204.5v142h-29.745v-70.527l11.804-40.706-8.499-2.84L139.345 201.5h-22.662L78.44 87.427l-8.499 2.84L81.745 130.5v71H52v-142h44.853l25.967 81.413v23.667h9.443z"/></svg>
